X: 40885
T: Tribute To Siobhán Ní Chonaill
R: jig
M: 6/8
K: Gmajor
|:DB,D GBd|g2d e2d|B2A B2A|BGE EDE|
G2D EDE|GBd ged|B2A BGE|1 GAG GFE:|2 GAG GBd||
|:g2e dBd|gag ged|e2a age|aba age|
dBd g2e|dBe dBA|B2A BGE|1 GAG GBd:|2 GAG GFE||

